brandFactory_export/1.Light/Perfume _1Light.svg

<?xml version="1.0" encoding="UTF-8"?>
<svg width="24px" height="24px" viewBox="0 0 24 24" version="1.1" xmlns="http://www.w3.org/2000/svg" xmlns:xlink="http://www.w3.org/1999/xlink">
    <title>1.Light/Perfume _1Light</title>
    <g id="Symbols" stroke="none" stroke-width="1" fill="none" fill-rule="evenodd">
        <g id="1.Light/Perfume-_1Light" fill="#5CB615" fill-rule="nonzero">
            <path d="M15.1462185,20.6252101 C17.4857143,19.3411765 18.7226891,17.1092437 18.7226891,14.1579832 C18.7226891,8.89411765 14.487395,7.27394958 12.6655462,6.82352941 C11.7680672,6.60168067 10.8268908,6.48739496 9.85882353,6.48739496 C8.8,6.48739496 7.72436975,6.63529412 6.70252101,6.93781513 C6.68571429,6.94453782 6.66554622,6.94789916 6.6487395,6.95462185 C3.5697479,7.88235294 1.00168067,10.2184874 1.00168067,14.1579832 C1.00168067,17.0655462 2.26218487,19.2941176 4.64537815,20.6084034 C4.65210084,20.6151261 4.65882353,20.6218487 4.66554622,20.6252101 L15.1462185,20.6252101 Z M15.3411765,22.6420168 C15.6235294,22.6420168 15.8554622,22.410084 15.8554622,22.1243697 C15.8554622,21.8386555 15.6235294,21.610084 15.3411765,21.610084 L4.42016807,21.610084 C4.13445378,21.610084 3.90588235,21.8420168 3.90588235,22.1243697 C3.90588235,22.410084 4.13781513,22.6420168 4.42016807,22.6420168 L15.3411765,22.6420168 Z M6.99159664,2.33277311 L6.99159664,5.84201681 C7.93277311,5.61680672 8.90420168,5.50252101 9.85882353,5.50252101 C10.6991597,5.50252101 11.5159664,5.60336134 12.3092437,5.75798319 L12.3092437,2.33277311 C12.3092437,1.58655462 11.7042017,0.981512605 10.9579832,0.981512605 L8.3394958,0.981512605 C7.59663866,0.981512605 6.99159664,1.58991597 6.99159664,2.33277311 Z M19.7042017,14.1579832 C19.7042017,17.1663866 18.5445378,19.5193277 16.3529412,21.0285714 C16.6487395,21.3008403 16.8369748,21.6907563 16.8369748,22.1243697 C16.8369748,22.9512605 16.1647059,23.6235294 15.3378151,23.6235294 L4.42016807,23.6235294 C3.59327731,23.6235294 2.9210084,22.9512605 2.9210084,22.1243697 C2.9210084,21.6806723 3.11932773,21.287395 3.42521008,21.0117647 C1.73109244,19.8487395 0.0168067227,17.7781513 0.0168067227,14.1579832 C0.0168067227,9.83529412 2.71596639,7.23361345 6.00672269,6.12773109 L6.00672269,2.33277311 C6.00672269,1.04537815 7.05546218,0 8.3394958,0 L10.9579832,0 C12.2453782,0 13.2907563,1.04537815 13.2907563,2.33277311 L13.2907563,5.97647059 C17.3142857,7.12605042 19.7042017,10.1546218 19.7042017,14.1579832 Z M13.589916,16.010084 L13.589916,12.5243697 C13.589916,11.9058824 13.0857143,11.4016807 12.4672269,11.4016807 L6.95462185,11.4016807 C6.33613445,11.4016807 5.83193277,11.9058824 5.83193277,12.5243697 L5.83193277,16.010084 C5.83193277,16.6319328 6.33613445,17.1361345 6.95462185,17.1361345 L12.4672269,17.1361345 C13.0857143,17.1361345 13.589916,16.6319328 13.589916,16.010084 L13.589916,16.010084 Z M12.4672269,10.4168067 C13.6302521,10.4168067 14.5747899,11.3613445 14.5747899,12.5210084 L14.5747899,16.0067227 C14.5747899,17.1697479 13.6302521,18.1142857 12.4672269,18.1142857 L6.95462185,18.1142857 C5.79159664,18.1142857 4.84705882,17.1697479 4.84705882,16.0067227 L4.84705882,12.5210084 C4.84705882,11.3579832 5.79159664,10.4168067 6.95462185,10.4168067 L12.4672269,10.4168067 L12.4672269,10.4168067 Z M9.89915966,3.4487395 C9.89915966,3.75798319 10.1512605,4.00672269 10.4571429,4.00672269 C10.7663866,4.00672269 11.0151261,3.75462185 11.0151261,3.4487395 C11.0151261,3.1394958 10.7630252,2.8907563 10.4571429,2.8907563 C10.1512605,2.8907563 9.89915966,3.14285714 9.89915966,3.4487395 Z M12,3.4487395 C12,4.29915966 11.307563,4.99159664 10.4571429,4.99159664 C9.60672269,4.99159664 8.91764706,4.29915966 8.91764706,3.4487395 C8.91764706,2.59831933 9.61008403,1.90588235 10.4571429,1.90588235 C11.3109244,1.9092437 12,2.59831933 12,3.4487395 Z M15.0117647,2.80672269 C14.887395,2.80672269 14.7596639,2.75966387 14.6655462,2.66218487 C14.4739496,2.47058824 14.4739496,2.15798319 14.6655462,1.96638655 L15.6470588,0.98487395 C15.8386555,0.793277311 16.1478992,0.793277311 16.3428571,0.98487395 C16.5344538,1.17647059 16.5344538,1.48907563 16.3428571,1.68067227 L15.3613445,2.66218487 C15.2638655,2.75966387 15.1394958,2.80672269 15.0117647,2.80672269 L15.0117647,2.80672269 Z M14.907563,3.42184874 C14.907563,3.14957983 15.1260504,2.93109244 15.3983193,2.93109244 L17.1932773,2.93109244 C17.4655462,2.93109244 17.6840336,3.14957983 17.6840336,3.42184874 C17.6840336,3.69411765 17.4655462,3.91260504 17.1932773,3.91260504 L15.3983193,3.91260504 C15.1294118,3.91260504 14.907563,3.69411765 14.907563,3.42184874 Z M14.7226891,4.23529412 C14.9142857,4.04369748 15.2268908,4.04369748 15.4184874,4.23529412 L16.4537815,5.27394958 C16.6453782,5.46554622 16.6453782,5.77478992 16.4537815,5.9697479 C16.3563025,6.06386555 16.2319328,6.11428571 16.107563,6.11428571 C15.9831933,6.11428571 15.8554622,6.06722689 15.7613445,5.9697479 L14.7260504,4.93109244 C14.5310924,4.7394958 14.5310924,4.42689076 14.7226891,4.23529412 L14.7226891,4.23529412 Z M8.13445378,13.7243697 C7.86218487,13.7243697 7.64369748,13.502521 7.64369748,13.2336134 C7.64369748,12.9647059 7.86218487,12.7428571 8.13445378,12.7428571 L11.2840336,12.7428571 C11.5563025,12.7428571 11.7747899,12.9613445 11.7747899,13.2336134 C11.7747899,13.5058824 11.5563025,13.7243697 11.2840336,13.7243697 L8.13445378,13.7243697 Z M12.4705882,14.6890756 C12.7428571,14.6890756 12.9613445,14.907563 12.9613445,15.1798319 C12.9613445,15.4521008 12.7428571,15.6705882 12.4705882,15.6705882 L6.9512605,15.6705882 C6.6789916,15.6705882 6.4605042,15.4521008 6.4605042,15.1798319 C6.4605042,14.907563 6.6789916,14.6890756 6.9512605,14.6890756 L12.4705882,14.6890756 Z" id="Perfume-_1Light"></path>
        </g>
    </g>
</svg>

<svg width="24" height="24" viewBox="0 0 24 24" xmlns="http://www.w3.org/2000/svg"><path d="M15.146 20.625c2.34-1.284 3.577-3.516 3.577-6.467 0-5.264-4.236-6.884-6.057-7.334a11.69 11.69 0 00-2.807-.337c-1.059 0-2.135.148-3.156.45-.017.008-.037.01-.054.018-3.08.927-5.647 3.263-5.647 7.203 0 2.908 1.26 5.136 3.643 6.45a.09.09 0 00.02.017h10.481zm.195 2.017a.517.517 0 000-1.032H4.421a.517.517 0 000 1.032h10.92zm-8.35-20.31v3.51a12.38 12.38 0 012.868-.34c.84 0 1.657.101 2.45.256V2.333c0-.746-.605-1.351-1.351-1.351H8.339c-.742 0-1.347.608-1.347 1.35zm12.713 11.826c0 3.008-1.16 5.361-3.351 6.87.296.273.484.663.484 1.096a1.5 1.5 0 01-1.5 1.5H4.42a1.5 1.5 0 01-1.499-1.5c0-.443.198-.837.504-1.112C1.731 19.849.017 17.778.017 14.158c0-4.323 2.699-6.924 5.99-8.03V2.333A2.336 2.336 0 018.339 0h2.619a2.334 2.334 0 012.333 2.333v3.643c4.023 1.15 6.413 4.179 6.413 8.182zM13.59 16.01v-3.486c0-.618-.504-1.122-1.123-1.122H6.955c-.619 0-1.123.504-1.123 1.122v3.486c0 .622.504 1.126 1.123 1.126h5.512c.619 0 1.123-.504 1.123-1.126zm-1.123-5.593c1.163 0 2.108.944 2.108 2.104v3.486a2.109 2.109 0 01-2.108 2.107H6.955a2.109 2.109 0 01-2.108-2.107V12.52c0-1.163.945-2.104 2.108-2.104h5.512zM9.9 3.449a.559.559 0 101.118-.002.559.559 0 00-1.118.002zm2.101 0c0 .85-.692 1.543-1.543 1.543A1.542 1.542 0 1112 3.449zm3.012-.642a.493.493 0 01-.346-.84l.981-.982a.493.493 0 01.696.696l-.982.981a.488.488 0 01-.35.145zm-.104.615a.49.49 0 01.49-.49h1.795a.49.49 0 01.491.49.49.49 0 01-.49.49h-1.796a.491.491 0 01-.49-.49zm-.185.813a.493.493 0 01.695 0l1.036 1.039a.493.493 0 01-.346.84.48.48 0 01-.347-.144L14.726 4.93a.49.49 0 01-.003-.696zm-6.589 9.49a.491.491 0 010-.982h3.15a.49.49 0 01.49.49.49.49 0 01-.49.491h-3.15zm4.337.964a.49.49 0 01.49.49.49.49 0 01-.49.492H6.95a.49.49 0 01-.49-.491.49.49 0 01.49-.49h5.52z" fill="#5CB615" fill-rule="nonzero"/></svg>
